X: 28903
T: N'Fheadar
R: reel
M: 4/4
K: Gmajor
|:ABcA d2 cA|d2 cA BGGB|ABcA d2 cA|(3ded fa gfdc|
ABcA d2 cA|d2 cA BGG2|bgfa gfdc|AdcA AGG2:|
|:d~f3 d~g3|decd ABcA|d~f3 d~g3|fdcA BGGB|
d~f3 d~g3|decd ABce|bc’ab gfdc|1 AdcA AGGA:|2 AdcA AGG2||

